X:1
T:Huntington Beach, 10.10.10 D
T:Huntington Beach, 10.10.10 D
T:Rigdon McCoy McIntosh, 1879
T:Public Domain Courtesy of the Cyber Hymnal™
C:Rigdon McCoy McIntosh, 1879
Z:Public Domain
Z:Courtesy of the Cyber Hymnal™
%%score ( 1 2 ) ( 3 4 )
L:1/8
Q:1/4=100
M:4/4
K:C
V:1 treble 
V:2 treble 
V:3 bass 
V:4 bass 
V:1
 [EG]2 [EG]>[FA] [EG]2 [CE][EG] | [Ec]2 [GB]>[FA] [EG]4 | [FA]2 [FA]>[FA] [Fd]2 [^Fc][Fc] | %3
 [GB]2 [^FA]>[FA] G4 | [EG]2 [EG]>[FA] [EG]2 [CE][EG] | [Ec]2 [GB]>[FA] [EG]4 | %6
 [FA]2 [FA]>[FA] [Fd]2 [Gc][Ad] | [Ge]2 [Ge]>[Fd] [Ec]3 [EG] | [EG]2 [CE]>[DF] [EG]3 [Ec] | %9
 [Ec]2 [CA]>[DB] [Ec]4 | [Gd]2 [Gd]>[Ge] [Gd]2 [Gc][Ad] | [Ge]2 [Ge]>[Fd] [Ec]4 |] %12
V:2
 x8 | x8 | x8 | x4 G4 | x8 | x8 | x8 | x8 | x8 | x8 | x8 | x8 |] %12
V:3
 [C,C]2 [C,C]>[C,C] [C,C]2 [C,G,][C,C] | [C,C]2 [C,C]>[C,C] [C,C]4 | %2
 [F,C]2 [F,A,]>[F,A,] [D,A,]2 [D,A,][D,A,] | [D,D]2 [D,D]>[D,D] [G,B,]4 | %4
 [C,C]2 [C,C]>[C,C] [C,C]2 [C,G,][C,C] | [C,C]2 [C,C]>[C,C] [C,C]4 | %6
 [F,C]2 [F,A,]>[F,A,] [D,A,]2 [E,C][F,C] | [G,C]2 [G,C]>G, [C,G,]3 [C,C] | %8
 [C,C]2 [C,C]>[C,C] [C,C]3 A, | A,2 A,>A, A,4 | [G,B,]2 [G,B,]>[G,C] [G,B,]2 [E,C][F,C] | %11
 [G,C]2 [G,C]>G, [C,G,]4 |] %12
V:4
 x8 | x8 | x8 | x8 | x8 | x8 | x8 | x7/2 G,/ x4 | x7 A, | A,2 A,>A, A,4 | x8 | x7/2 G,/ x4 |] %12

